src/assets/outline/Blend2.svg

<svg width="24" height="24" viewBox="0 0 24 24"  xmlns="http://www.w3.org/2000/svg">
<path d="M8.97021 16.75C8.58021 16.75 8.24021 16.72 7.92021 16.67C4.12021 16.17 1.22021 12.87 1.22021 9C1.22021 4.73 4.70021 1.25 8.97021 1.25C12.8402 1.25 16.1402 4.14 16.6402 7.97C16.6902 8.27 16.7202 8.61 16.7202 9C16.7202 13.27 13.2502 16.75 8.97021 16.75ZM8.97021 2.75C5.52022 2.75 2.72021 5.55 2.72021 9C2.72021 12.12 5.05022 14.78 8.14021 15.19C8.40022 15.23 8.67021 15.25 8.97021 15.25C12.4202 15.25 15.2202 12.45 15.2202 9C15.2202 8.7 15.2002 8.43 15.1602 8.19C14.7502 5.08 12.1002 2.75 8.97021 2.75Z" />
<path d="M14.9701 22.7502C11.1001 22.7502 7.80013 19.8602 7.30013 16.0302C7.27013 15.7902 7.35013 15.5602 7.52013 15.3902C7.69013 15.2202 7.94013 15.1502 8.17013 15.1902C8.41013 15.2302 8.67013 15.2502 8.97013 15.2502C12.4201 15.2502 15.2201 12.4502 15.2201 9.00022C15.2201 8.70022 15.2001 8.43022 15.1601 8.19022C15.1201 7.96022 15.2001 7.72022 15.3601 7.55022C15.5201 7.38022 15.7501 7.29022 16.0001 7.33022C19.8301 7.83022 22.7201 11.1302 22.7201 15.0002C22.7201 19.2702 19.2501 22.7502 14.9701 22.7502ZM8.98013 16.7502C9.74013 19.3702 12.1701 21.2502 14.9701 21.2502C18.4201 21.2502 21.2201 18.4502 21.2201 15.0002C21.2201 12.2002 19.3401 9.76022 16.7201 9.01022C16.7201 13.2702 13.2501 16.7502 8.98013 16.7502Z" />
<path d="M15.43 16.1598C15.24 16.1598 15.05 16.0898 14.9 15.9498L13.6 14.6698C13.31 14.3798 13.3 13.8998 13.59 13.6098C13.88 13.3198 14.35 13.3098 14.65 13.5998L15.95 14.8798C16.24 15.1698 16.25 15.6498 15.96 15.9398C15.82 16.0798 15.62 16.1598 15.43 16.1598Z" />
<path d="M16.9702 12.7499C16.7802 12.7499 16.5902 12.6799 16.4402 12.5299L15.4402 11.5299C15.1502 11.2399 15.1502 10.7599 15.4402 10.4699C15.7302 10.1799 16.2102 10.1799 16.5002 10.4699L17.5002 11.4699C17.7902 11.7599 17.7902 12.2399 17.5002 12.5299C17.3602 12.6799 17.1702 12.7499 16.9702 12.7499Z" />
<path d="M11.9702 17.7499C11.7802 17.7499 11.5902 17.6799 11.4402 17.5299L10.4402 16.5299C10.1502 16.2399 10.1502 15.7599 10.4402 15.4699C10.7302 15.1799 11.2102 15.1799 11.5002 15.4699L12.5002 16.4699C12.7902 16.7599 12.7902 17.2399 12.5002 17.5299C12.3602 17.6799 12.1702 17.7499 11.9702 17.7499Z" />
</svg>

<?xml version="1.0" encoding="UTF-8"?>
<svg width="24" height="24" viewBox="0 0 24 24" xmlns="http://www.w3.org/2000/svg">
 <path d="m8.9702 16.75c-0.39 0-0.73-0.03-1.05-0.08-3.8-0.5-6.7-3.8-6.7-7.67 0-4.27 3.48-7.75 7.75-7.75 3.87 0 7.17 2.89 7.67 6.72 0.05 0.3 0.08 0.64 0.08 1.03 0 4.27-3.47 7.75-7.75 7.75zm0-14c-3.45 0-6.25 2.8-6.25 6.25 0 3.12 2.33 5.78 5.42 6.19 0.26001 0.04 0.53 0.06 0.83 0.06 3.45 0 6.25-2.8 6.25-6.25 0-0.3-0.02-0.57-0.06-0.81-0.41-3.11-3.06-5.44-6.19-5.44z"/>
 <path d="m14.97 22.75c-3.87 0-7.17-2.89-7.67-6.72-0.03-0.24 0.05-0.47 0.22-0.64s0.42-0.24 0.65-0.2c0.24 0.04 0.5 0.06 0.8 0.06 3.45 0 6.25-2.8 6.25-6.25 0-0.3-0.02-0.57-0.06-0.81-0.04-0.23 0.04-0.47 0.2-0.64s0.39-0.26 0.64-0.22c3.83 0.5 6.72 3.8 6.72 7.67 0 4.27-3.47 7.75-7.75 7.75zm-5.99-6c0.76 2.62 3.19 4.5 5.99 4.5 3.45 0 6.25-2.8 6.25-6.25 0-2.8-1.88-5.24-4.5-5.99 0 4.26-3.47 7.74-7.74 7.74z"/>
 <path d="m15.43 16.16c-0.19 0-0.38-0.07-0.53-0.21l-1.3-1.28c-0.29-0.29-0.3-0.77-0.01-1.06s0.76-0.3 1.06-0.01l1.3 1.28c0.29 0.29 0.3 0.77 0.01 1.06-0.14 0.14-0.34 0.22-0.53 0.22z"/>
 <path d="m16.97 12.75c-0.19 0-0.38-0.07-0.53-0.22l-1-1c-0.29-0.29-0.29-0.77 0-1.06s0.77-0.29 1.06 0l1 1c0.29 0.29 0.29 0.77 0 1.06-0.14 0.15-0.33 0.22-0.53 0.22z"/>
 <path d="m11.97 17.75c-0.19 0-0.38-0.07-0.53-0.22l-1-1c-0.29-0.29-0.29-0.77 0-1.06s0.77-0.29 1.06 0l1 1c0.29 0.29 0.29 0.77 0 1.06-0.14 0.15-0.33 0.22-0.53 0.22z"/>
</svg>
